icons/svg/16x16/external link/outline.svg

<svg width="16" height="16" fill="none" xmlns="http://www.w3.org/2000/svg">
  <path fill-rule="evenodd" clip-rule="evenodd" d="M13 8v3c0 1.103-.897 2-2 2H5c-1.103 0-2-.897-2-2V5c0-1.103.897-2 2-2h3V1H5C2.794 1 1 2.794 1 5v6c0 2.206 1.794 4 4 4h6c2.206 0 4-1.794 4-4V8h-2zm-1.208-5.207L10 1h5v5l-1.793-1.793-4.5 4.5a1 1 0 01-1.415-1.414l4.5-4.5z" fill="#000"/>
</svg>

<svg xmlns="http://www.w3.org/2000/svg" width="16" height="16" viewBox="0 0 16 16">
  <path fill-rule="evenodd" d="M13,8 L13,11 C13,12.103 12.103,13 11,13 L5,13 C3.897,13 3,12.103 3,11 L3,5 C3,3.897 3.897,3 5,3 L8,3 L8,1 L5,1 C2.794,1 1,2.794 1,5 L1,11 C1,13.206 2.794,15 5,15 L11,15 C13.206,15 15,13.206 15,11 L15,8 L13,8 Z M11.792,2.793 L10,1 L15,1 L15,6 L13.207,4.207 L8.707,8.707 C8.511,8.902 8.255,9 8,9 C7.744,9 7.488,8.902 7.292,8.707 C6.902,8.316 6.902,7.684 7.292,7.293 L11.792,2.793 Z"/>
</svg>
